X:0434
M:C|
L:1/8
Q:1/2=76
K:D
(de)(fg)   a2 (ba)|.g2 .g2    .g2 (ag)| f2  f2  (gf)(ed)|Te4       A4     |
(de)(fg)  .a2 (ba)| g2 (ag)   .f(agf) | e2  d2  .e(gfe) | d2d2     d4    ::
(de).f2   (ef).g2 |(de).f2    (ef).g2 |(de).f.d (ef).g.f|Te4       A4     |
(de).f.d  (ef).g.e|(de).f.d   (df).g.a| f2(Ted)  e(gTfe)| d2d2     d4    ::
(de)(fg)   a2 (ba)| g2  g2     g2 (ag)| f2  f2  (gf)(ed)|Te4       A4     |
(de)(fg)  .a2 (ba)|.g2 (ag)   .f2 (gf)| e2  d2  .e(gfe) | d2d2     d4    ::
(fa)(da)  (fa)(da)|(gb)(eb)   (gb)(eb)|(fa)(da) (fa)(da)|(cd)(Ae) (ce)(Ae)|
(fa)(da)  (fa)(da)|(gb)(gb)   (fa)(fa)|(gfe).d  (egf).e | d2d2     d4    ::
(aTfd).f  (aTfd).f|(bg``e).g  (bge).g |(afd).f  (afd).f |(ecA).c  (ecA).c |
(afd).f   (afd).f | g2 (ag)    f2 (gf)| e2  d2   egfe   | d2d2     d4    ::
 defg      afed   | efga       bg``fe | defg     afed   | ABcd     ecBA   |
 defg      afed   |(gb)(gb)   (fa)(fa)|(gf)(ed) (eg)(fe)| d2d2     d4    ::
(df)(af)  (df)(af)|(eg)(bg)   (eg)(bg)|(df)(af) (df)(af)|(Ac)(ec) (Ac)(ec)|
(df)(af)  (df)(af)|.g2 (bg)   .f2 (af)| e2  d2  (egfe) | d2d2     d4    ::
.a2 .f2   .d2 .A2 |.b2 .g2    .e2 .B2 |.a2 .f2  .d2 .A2 |.e2.c2   .B2 .A2 |
.a2 .f2   .d2 .A2 |.g(b`ag)   .f(a`d'a)|(gf)(ed) .e(gfe) | d2d2     d4    ::
(df)(df)  (df)(df)|(eg)(eg)   (eg)(eg)| dfdf     dfdf   | cece     cece   |
 dfdf      dfdf   | gb``gb     fa``fa | gfed     egfe   | d2d2     d4    ::
(de)(fg)   a2 (ba)|.g2 .g2    .g2 (ag)|.f2 .f2  (gf)(ed)|Te4       A4     |
(de)(fg)   a2 (ba)|.g2 (ag)   .f2 (gf)| e2  d2  .e(gfe) | d2d2     d4    :|

